X: 3265
M: 6/8
L: 1/8
K: G
|:\
d3 dBG | dBG ABc | d3 dBG | ABc BAG |\
d3 dBG | dBG ABc | dgd edc | BcA G3 :|
|:\


